X:1
T:Hoist the colours
T:Hoist the colours
T:suite
T:Hans Zimmer
C:Hans Zimmer
%%score { 1 | 2 }
L:1/8
M:3/4
K:F
V:1 treble nm="Akordeon" snm="Ak."
V:2 bass 
V:1
 A4 A2 | A4 A2 | B2 B2 A2 | D6 | d4 d2 | d2 e2 d2 | ^c6 | z6 | e4 _e2 | e4 f2 | e4 ^c2 | A6 | %12
 e3 f e2 | A4 c2 | d6 | z6 | [Aa]4 [Aa]2 | [Aa]4 [Aa]2 | [Bb]2 [Bb]2 [Aa]2 | [Dd]6 | %20
 [dd']4 [dd']2 | [dd']2 [ee']2 [dd']2 | [^c^c']6 | z6 | [ee']4 [_e_e']2 | [ee']4 [ff']2 | %26
 [ee']4 [^c^c']2 | [Aa]6 | [ee']3 [ff'] [ee']2 | [Aa]4 [cc']2 | [dd']6 | z6 | a4 a2 | a4 a2 | %34
 b2 b2 a2 | d6 | d'3 d' d'2 | _e'2 d'2 c'2 | b6 | z4 g2 | d'3 ^c' d'2 | g2 b2 ^c'2 | d'3 ^c' d'2 | %43
 a2 ^c'2 d'2 | e'3 _e' =e'2 | =b2 ^c'2 d'2 | ^c'6 | z4 A2 | d4 d2 | e6 | D4 D2 | A,6 | D3 ^C D2 | %53
 A,6 | D4 D2 | F2 E2 D2 | E6 | z6 | E4 E2 | A,4 C2 | E3 _E =E2 | A,6 |[M:6/4] E3 F3 A,3 C3 | %63
[M:3/4] D6 | z6 |[K:D] D6 | F,4 B,2 | D3 C D2 | F,6 | D3 D D2 | F2 E2 D2 | C6 | z6 | %73
[K:C][K:bass] C6 | E,4 A,2 | C3 B, C2 | E,6 | C3 C C2 | E2 D2 C2 | B,6 |[K:treble] z6 | [EGB]6 | %82
 [G,B,E]6 | [EGc]6 | [G,CE]6 | [B,DG]3 [B,DG] [B,DG]2 | [B,DG]2 [B,DA]2 [DGB]2 | [A,DA]6 | %88
 z2 [B,EG]2 [B,EA]2 | [EGB]6 | [G,B,E]6 | [EGc]6 | [G,CE]6 | [A,DA]3 [A,DA] [A,DA]2 | %94
 [A,DA]2 [B,DG]2 [^F,A,^F]2 | [G,B,E]6- | [G,B,E]6- | [G,B,E]6- | [G,B,E]6 | z2 [A,DF]2 [G,^CE]2 | %100
 [F,A,D]D D/D/D DE/F/ | GF EF EC | [F,A,D]D D/D/D DE/F/ | GF GA _B^c | [F,A,D]D D/D/D DE/F/ | %105
 [F,A,D]3 [G,B,]3 | [A,^CE]3 [A,C]3 | [F,A,D]D z D DD/E/ | F/E/F/F/ E/F/f/e/ f/f/e/f/ | %109
 [Adf][Adf] e/d/[A^ce] [Ace]d/c/ | [FAd]3 A2 B/^c/ | [FAd][FA] z [EG_B] [EG] z | %112
 [DFA][DF] z [^CEG] [CE] z | D/E/F FE/D/ EE | D/C/ [F,A,D]3- [F,A,D]A | z6 | z6 | z6 | z6 | z6 | %120
 z6 | z6 | z6 | z6 | z6 | z6 | z6 | z6 | z6 | z6 | z6 | z6 | z6 |] %133
V:2
 A,,2 [D,F,]2 z2 | A,,2 [D,F,]2 z2 | B,,2 [D,F,]2 z2 | A,,2 [D,F,]2 z2 | z6 | z6 | z6 | z6 | z6 | %9
 z6 | z6 | z6 | z6 | z6 | z6 | z6 | z6 | z6 | z6 | z6 | z6 | z6 | z6 | z6 | z6 | z6 | z6 | z6 | %28
 z6 | z6 | z6 | z6 | z6 | z6 | z6 | z6 | z6 | z6 | z6 | z6 | z6 | z6 | z6 | z6 | z6 | z6 | z6 | %47
 z6 | z6 | z6 | z6 | z6 | z6 | z6 | z6 | z6 | z6 | z6 | z6 | z6 | z6 | z6 |[M:6/4] z12 | %63
[M:3/4] z6 | z6 |[K:D] z6 | z6 | z6 | z6 | z6 | z6 | z6 | z6 |[K:C] z6 | z6 | z6 | z6 | z6 | z6 | %79
 z6 | z6 | z6 | z6 | z6 | z6 | z6 | z6 | z6 | z6 | z6 | z6 | z6 | z6 | z6 | z6 | z6 | z6 | z6 | %98
 z6 | z6 | z6 | z6 | z6 | z6 | z6 | z6 | z6 | z6 | z6 | z6 | z6 | z6 | z6 | z6 | z6 | z6 | z6 | %117
 z6 | z6 | z6 | z6 | z6 | z6 | z6 | z6 | z6 | z6 | z6 | z6 | z6 | z6 | z6 | z6 |] %133

